outputs/icons/people/user_minor_round.svg

<svg xmlns="http://www.w3.org/2000/svg" width="1200" height="1200" fill="none"><path fill="#000" fill-rule="evenodd" d="M430.001 370c60.75 0 110.004-49.246 110.004-109.996 0-60.755-49.254-110.004-110.004-110.004s-110.004 49.246-110.004 110.004c0 60.75 49.254 109.996 110.004 109.996m-15.458 10.003v.377c-49.923 2.47-91.469 17.236-121.184 46.492C260.568 459.161 250 501.375 250 540v185c0 27.615 22.384 50 50 50 5.225 0 10.268-.8 15.005-2.285V1000c0 27.615 22.384 50 50 50 27.608 0 50-22.385 50-50V749.785H445V1000c0 27.615 22.391 50 50 50 27.615 0 50-22.385 50-50V772.715A50 50 0 0 0 560.005 775c27.615 0 50-22.385 50-50V540c0-40.54-13.025-82.296-45.975-113.693-31.265-29.793-74.756-44.838-126.264-46.206v-.097zM800.285 525.425c46.86 0 84.86-37.988 84.86-84.852 0-46.869-38-84.86-84.86-84.86-46.865 0-84.86 37.99-84.86 84.86 0 46.864 37.995 84.852 84.86 84.852m-11.925 7.72v.29c-38.515 1.905-70.565 13.295-93.485 35.865-25.295 24.91-33.45 57.475-33.45 87.27v142.715c0 21.305 17.27 38.57 38.57 38.57 4.035 0 7.925-.62 11.575-1.765v175.335c0 21.305 17.27 38.57 38.575 38.57 21.295 0 38.57-17.265 38.57-38.57V818.4h23.14v193.025c0 21.305 17.27 38.57 38.57 38.57 21.305 0 38.57-17.265 38.57-38.57V836.09a38.7 38.7 0 0 0 11.575 1.765c21.305 0 38.57-17.265 38.57-38.57V656.57c0-31.275-10.045-63.485-35.465-87.705-24.115-22.985-57.67-34.59-97.4-35.645v-.075z"/></svg>

<svg width="1200" height="1200" viewBox="0 0 1200 1200" fill="none" xmlns="http://www.w3.org/2000/svg"><path fill-rule="evenodd" d="M430.001 370C490.751 370 540.005 320.754 540.005 260.004C540.005 199.249 490.751 150 430.001 150C369.251 150 319.997 199.246 319.997 260.004C319.997 320.754 369.251 370 430.001 370ZM421.267 380.003H414.543V380.38C364.62 382.85 323.074 397.616 293.359 426.872C260.568 459.161 250 501.375 250 540V725C250 752.615 272.384 775 300 775C305.225 775 310.268 774.2 315.005 772.715V1000C315.005 1027.615 337.389 1050 365.005 1050C392.613 1050 415.005 1027.615 415.005 1000V749.785H445V1000C445 1027.615 467.391 1050 495 1050C522.615 1050 545 1027.615 545 1000V772.715C549.735 774.2 554.78 775 560.005 775C587.62 775 610.005 752.615 610.005 725V540C610.005 499.46 596.98 457.704 564.03 426.307C532.765 396.514 489.274 381.469 437.766 380.101V380.004L421.267 380.003Z" fill="#1D1E23"/><path fill-rule="evenodd" d="M800.285 525.425C847.15 525.425 885.145 487.437 885.145 440.573C885.145 393.704 847.15 355.713 800.285 355.713C753.42 355.713 715.425 393.703 715.425 440.573C715.425 487.437 753.42 525.425 800.285 525.425ZM793.545 533.145H788.36V533.435C749.845 535.34 717.795 546.73 694.875 569.3C669.58 594.21 661.425 626.775 661.425 656.57V799.285C661.425 820.59 678.695 837.855 699.995 837.855C704.03 837.855 707.92 837.235 711.57 836.09V1011.425C711.57 1032.73 728.84 1049.995 750.145 1049.995C771.44 1049.995 788.715 1032.73 788.715 1011.425V818.4H811.855V1011.425C811.855 1032.73 829.125 1049.995 850.425 1049.995C871.73 1049.995 888.995 1032.73 888.995 1011.425V836.09C892.65 837.235 896.54 837.855 900.57 837.855C921.875 837.855 939.14 820.59 939.14 799.285V656.57C939.14 625.295 929.095 593.085 903.675 568.865C879.56 545.88 846.005 534.275 806.275 533.22V533.145L793.545 533.145Z" fill="#1D1E23"/></svg>
